icons/watch.svg

<svg
  xmlns="http://www.w3.org/2000/svg"
  width="24"
  height="24"
  viewBox="0 0 24 24"
  fill="none"
  stroke="currentColor"
  stroke-width="2"
  stroke-linecap="round"
  stroke-linejoin="round"
>
  <path d="M12 18C15.3137 18 18 15.3137 18 12C18 8.68629 15.3137 6 12 6C8.68629 6 6 8.68629 6 12C6 15.3137 8.68629 18 12 18Z" />
  <path d="M12 10V12.6667L13 14" />
  <path d="M15.9823 16.8636L15.6729 20.3454C15.6331 20.7988 15.4294 21.2202 15.1021 21.5266C14.7747 21.8329 14.3476 22.0018 13.905 22H10.0773C9.63477 22.0018 9.20761 21.8329 8.88027 21.5266C8.55293 21.2202 8.34922 20.7988 8.30939 20.3454L8 16.8636M8.00884 7.13637L8.31823 3.65456C8.35793 3.20281 8.56038 2.78264 8.88585 2.47652C9.21131 2.1704 9.63629 2.00044 10.0773 2.00001H13.9227C14.3652 1.99817 14.7924 2.1671 15.1197 2.47344C15.4471 2.77978 15.6508 3.20125 15.6906 3.65456L16 7.13637" />
</svg>

<svg
  xmlns="http://www.w3.org/2000/svg"
  width="24"
  height="24"
  viewBox="0 0 24 24"
  fill="none"
  stroke="currentColor"
  stroke-width="2"
  stroke-linecap="round"
  stroke-linejoin="round"
>
  <path d="M12 18a6 6 0 1 0 0-12 6 6 0 0 0 0 12z" />
  <path d="M12 10v2.667L13 14" />
  <path d="M15.982 16.864l-.31 3.481a1.836 1.836 0 0 1-.57 1.182 1.741 1.741 0 0 1-1.197.473h-3.828a1.741 1.741 0 0 1-1.197-.473 1.838 1.838 0 0 1-.57-1.182L8 16.864m.009-9.728l.31-3.481a1.83 1.83 0 0 1 .567-1.178C9.21 2.17 9.636 2 10.077 2h3.846a1.74 1.74 0 0 1 1.197.473c.327.307.53.728.57 1.182L16 7.136" />
</svg>
